X:1
T:Gnglt frn Nordmaling
R:Gnglt
Z:Anton Teljebck 2007-09-05
O:Vsterbotten
M:4/4
L:1/8
K:D
A>d cd B>g gf|ed cB Ad FG|A>d cd B>g gf|eA Bc d4:|
f>g ag a>b ag|A>g fe f>g fe|d>d cd B>g gf|eA Bc d4:|
